X:1
T:F Major Louis Bourgeois, 1560
T:William Kethe, 1561 88. 88. (L. M.)
T:Psalm 100 No copyright. Transcribed from The Scottish Psalter, 1635.
%%score [ 1 2 3 4 ]
L:1/8
M:6/4
K:F
V:1 treble nm="Treble" snm="Tr."
V:2 treble nm="Counter" snm="C."
V:3 treble-8 nm="Tenor" snm="T."
V:4 bass nm="Bass" snm="B."
V:1
 A4 A2 G2 F2 E2 | (D2 F4) E2 F4 || F4 F2 F2 E2 F2 | G4 F4 E4 || A4 G2 F2 E2 F2 | B4 c4 A4 || %6
 G4 F4 F4 |[M:10/4] E2 G2 (GF F4) E2 F8 |] %8
V:2
 c4 c2 c2 A2 c2 | (B2 A2) c4 c4 || c4 c2 c2 c2 c2 | _e4 c4 c4 || c4 e2 c2 c2 A2 | d4 c4 c4 || %6
w: 1.~All peo- ple that on|earth * do dwell,|Sing to the Lord with|cheer- ful voice:|Him serve with fear, His|praise forth tell,|
w: 2.~The Lord ye know is|God * in- deed,|With- out our aid He|did us make:|We are His flock, He|doth us feed,|
 e4 d2 (c4 =B2) |[M:10/4] c2 d2 c4 c4 A8 |] %8
w: Come ye be- *|fore Him and re- joice.|
w: And for His *|sheep He doth us take.|
V:3
 F4 F2 E2 D2 C2 | F4 G4 A4 || A4 A2 A2 G2 F2 | B4 A4 G4 || F4 G2 A2 G2 F2 | D4 E4 F4 || c4 A4 F4 | %7
w: 3.~O en- ter then His|gates with praise,|Ap- proach with joy His|courts un- to:|Praise, laud, and bless His|name al- ways,|For it is|
w: 4.~For why? The Lord our|God is good,|His mer- cy is for|ev- er sure:|His truth at all times|firm- ly stood,|And shall from|
[M:10/4] G2 B2 A4 G4 F8 |] %8
w: seem- ly so to do.|
w: age to age en- dure.|
V:4
 F,4 F,2 C,2 D,2 A,,2 | (B,,2 D,2) C,4 F,,4 || F,4 F,2 F,2 C,2 F,2 | _E,4 F,4 C,4 || %4
 F,4 E,2 F,2 C,2 D,2 | G,,4 C,4 F,,4 || C,4 F,4 D,4 |[M:10/4] C,2 G,,2 (A,,2 F,,2) C,4 F,,8 |] %8

